X: 7045
T: Chipped Tooth, The
R: jig
M: 6/8
K: Eminor
|:E2 e efg|fed edB|A2 A AGA|B2 d BAG|
E2 e efg|fed edB|A2 A AGA|B2 d2 B2:|
|:A2 A AGA|B2 d BAG|E2 e efg|fed edB|
A2 A AGA|B2 d BAG|E2 e efg|fed e3:|

